X:745
T:Reel 745
M:4/4
K:Emin
L:1/8
B>d (3GEG  (3GGG  (3AGF | (3GFE G>E  (3ede |d>A (3AGA B>E (3FGA | (3FGA  (3dcd A>G (3FEF :||2A>A (3AGA A2G2|BAGF G>B (3ddd | (3dcB c>B  (3BAB e2|d>B (3AGF d2d>E| (3FGF  (3AGF G2G2| (3cdc e2 d2|B2G2 G2:|
